X:1
T:Präludium
T:Präludium
T:Opus 28
T:Clara Faisst
C:Clara Faisst
%%score { ( 1 4 6 ) | ( 2 3 5 ) }
L:1/8
Q:1/4=54
M:3/4
K:C
V:1 treble nm="Klavier\noder\nOrgel"
V:4 treble 
V:6 treble 
V:2 bass 
V:3 bass 
V:5 bass 
V:1
!ff!"^Wuchtend und schwer" z"^(Mesuré et lourd)" ([EA-c][FA-d][DAB][EA-c][DAB]) | %1
 z!f! ([CE-A][DE-B][B,EG][CE-A]"_dim."[B,EG]) | z (E2 D[I:staff +1] B,C) | %3
!>(![I:staff -1] z[I:staff +1] A,- A,2-!>)! A,2 |!ff![I:staff -1] z (a2 f [Bdg][Ace]) | %5
!>(! z (f2 d [GBe][FAc])!>)! |!>(! z (B2 A!>)! F2) |!>(! z (E2 D[I:staff +1] A,2)!>)! | %8
!ff![I:staff -1] z [Acea] (!tenuto![EA-c-e]!tenuto![FAcf]!tenuto![Gc-fg]!tenuto![Acfa]) | %9
 z (!tenuto![Begb]!tenuto![cfa]!tenuto![Beg]!tenuto![Ace][GBeg]) | z!>(! ([FAd] B2 G2)!>)! | %11
!>(! z ([CFA][B,EG][A,DF]!>)! ED) |!<(! z ([EA-c][FA-d][DAB][EA-c][FAd])!<)! | %13
 z (ef[GBd] [EGce][FGBf]) | %14
[Q:1/4=50] z!ff! [Bdg] (!tenuto![cec']"_breit""_(large)"!tenuto![Bdfb]!tenuto![ABea]!tenuto![^GBe^g]) | %15
[Q:1/4=40] z !tenuto![Aea]!tenuto![Bd^fb]!tenuto![^FBdf] !fermata![A^ca]2 || %16
!p!"^mit wachsendem Ausdruck"[Q:1/4=52]"^(de plus en plus expressif)" z (A!<(! [_B,=F_B][G,CG][A,CFA][=B,F=B])!<)! | %17
 z (c [FAd][DFA] [EGc]2) |!p! z (c [_D_A_d][_B,_E_B]"_cresc." [CEAc][=DA=d]) | %19
 z (_e [_Acf][FAc] [G_Be]2) |!p! z"^dolce" (^d ^c=B ^A^D) | z (^G ^FE ^D2) | z!f! (e=d=c[EB]E) | %23
 z (AGF [^G,B,E]2) | %24
!f!"^feierlich und gross""^(large et solennel)" z ([A,A] [B,^FB]!<(![^F,F]) ([A,EA][^C^c] | %25
 [^F^A^f])!<)!(!tenuto![A^a] !tenuto![Bfb]!tenuto![^G^c^g] !tenuto![Acfa]2) | %26
 z!f! ([Bb][=ce-=c'][=Ae=a] [Beb][^cea^c']) | z ([dd'][ebe'][Bb] [dad']2) | %28
 z (!tenuto![_e_e']!tenuto![dd']!tenuto![cc']"_crescendo"!tenuto![_B_b]!tenuto![_A_a]) | %29
 z ([ff'][=e=e'][dd'] [dg-d'][cgc']) |!ff! z (([aa'][gg'][ff'] [eb-e'][dbd'])) | %31
 z [c'e'c''][be'b'][ee'] [ae'a']2 |"^ruhig""^(calme)"!p! (AB GBdB | A)(G ^FA ^G!<(!D- | %34
 D) (E2 =F2!<)! E- | E)A!>(! (A^G (d)!>)!^c) |"^erregt"!mf!"^(enfièvré)" (=c!<(!A_E_G) (_g!<)!_e | %37
 c_e) (_GF F>_E) |!p! (_EC[Q:1/4=48]A,"_rit."_B,[Q:1/4=40]=B,C) |!f![Q:1/4=50] [_B,D]!<(! (_BcGBd | %40
!f! [Gdg])!<)!(!tenuto![=B=b]!tenuto![cgc']!tenuto![Ada] !^![Bdb]2) | %41
!f! z!<(! ([cc'][dad'][Aa] [cgc'][ee'])!<)! |!ff! !>![a^c'a']2 !>![ad'a']2 !>![ae'a']2 | %43
!mf! z2!<(! (A=F ^CD) | (d!<)!_B ^FG) (g_e) |!p! ([_B^c]2 [^Fd]2 [^F=B^f]2) | %46
!p! ([^FB^f][EBe]!>(! [^F^A^f]3) F!>)! |"^innig und zart""^(fervent et délicat)" (^f3 e ^d2) | %48
 (b^g ^de/^f/ ed | ^g2-) (g/^f/e/^d/ ^cd/e/) |!p! ^f3 (f"_cresc."[E^A^d]^c | %51
 B)(^g [EBe][E^d] [^C^F^c])(^a | [^F^c^f][Ee]!<(! [^DFB^d]2) [Beb]2 | %53
!f! [=c-=g=c'-]4[Q:1/4=48] !fermata![cgc']2[Q:1/4=40] |[Q:1/4=50] z!p!!<(! (G ED (C)c-!<)! | %55
 cB[Q:1/4=45]!>(! [F-A]2[Q:1/4=40] ^G2)!>)! || %56
!ff!"^Tempo I"[Q:1/4=54] z ([EA-c][FA-d][DAB][EA-c][DAB]) | z!f! ([CE-A][DE-B][B,EG][CE-A][B,EG]) | %58
 z (E2!>(! D[I:staff +1] B,C) |[I:staff -1] z[I:staff +1] A,-!>)! A,4 | %60
!ff![I:staff -1] z (a2 f [Bdg][Ace]) |!f! z (f2 d [GBe][FAc]) |!mf! z (B2 A F2) | %63
!p! z (E2 D[I:staff +1] A,2) |!f![I:staff -1] z ([Acea]!<(![EA-c-e][FAcf][Gc-fg][Acfa]) | %65
 z (!tenuto![Begb]!<)!!tenuto![cfa]!tenuto![Beg]!tenuto![Ace]!tenuto![GBeg]) | %66
!mf! z ([FAd] B2 G2) |!p! z ([CFA][B,EG][A,DF] ED) |!f! z!<(! ([EA-c][FA-d][DAB][EA-c]!<)![FAd]) | %69
 z (ef"_(très large)""_sehr breit."[GBd][EGce][FGBdf]) | %70
[Q:1/4=46]!ff! z (!tenuto![Bdg][Q:1/4=42]!tenuto![egc']!tenuto![Bdfb][Q:1/4=40]!tenuto![ABdea]!tenuto![^GBde^g]) | %71
[Q:1/4=36] !^![A^cea]2[Q:1/4=30] !^![Ada]2 !fermata![Acea]2 |] %72
V:2
 !^![A,,,A,,]6 | !^![A,,,A,,]6 | x[I:staff -1] [A,C][I:staff +1][G,B,][F,A,] [E,G,]2 | %3
 x [D,F,] [E,G,][D,F,] [C,E,]2 | !^![A,,,A,,]6 | !^![A,,,A,,]6 | [A,,,A,,]6 | %7
 x [G,B,] [F,A,]2 [D,F,][C,E,] | [G,,,G,,]4 [F,,,F,,]2 | [E,,,E,,]6 | [D,,,D,,]4 [E,,,E,,]2 | %11
 [F,,,F,,]4 [G,,,G,,]2 | [A,,,A,,]4 [G,,,G,,]2 | z EF[G,B,D] [E,,,E,,][D,,,D,,] | %14
 [C,,,C,,]3 [D,,,D,,] [E,,,E,,]2 | z [E,A,^C][D,^F,B,][F,B,D] !fermata![E,A,^C]2 || %16
 [C,F,A,]2 D,E, [F,,F,][D,,D,] | [E,G,C]C [F,A,D][D,F,A,] [C,G,C]2 | %18
 [_E,_A,C]2 A,G, [=A,,E,A,][F,,_B,,F,] | %19
[I:staff -1] [G,_B,]2[I:staff +1] [_A,CF][F,A,C] [_E,_B,_E]2 | [=B,,^F,]4 [^D,,^A,,^F,]2 | %21
 [^C,,^C,]4 [^D,,^A,,^D,]2 | [=C,,=G,,=C,]4 [E,,B,,G,]2 | [D,,A,,D,]4 [E,,B,,E,]2 | %24
 [E,A,^C]2 [D,^F,]2 [^C,E,]2 | z ^C [^F,B,^D][^G,^C^E] [F,C^F]2 | %26
[I:staff -1] [=G,B,=E]2[I:staff +1] [A,=CE]2 [=G,-B,E-][G,A,E] | %27
 ^F,2 [G,B,D][I:staff -1]E[I:staff +1] [F,A,]2 |[I:staff -1] [G,C_EG]4[I:staff +1] [_E,G,C]2 | %29
 [G,=B,]4[I:staff -1] [G,CG]2 |[I:staff +1] [F,,C,F,]4 [G,,G,]2 | x [A,CEA] [B,DE^G]2 x2 | %32
 [D,,A,,D,]2 [E,,B,,E,]2 [B,,,B,,]2 | [^C,,^C,]2 [^D,,^D,]2 [E,,E,]2 | [^G,B,]2 [G,B,]2 [G,B,]2 | %35
 (A,2[I:staff -1] [E-d]2) [EA]2 |[I:staff +1] ^F,,2 (C>A,_E,>F,) | %37
 (_E>C [C,A,]>[_D,_B,]) ([_E,C][C,A,]) | (_G,F, _E,2) (D,E,) | F, _B,CG,B,D | %40
 [D,=B,][D,G,B,D][=E,G,C=E][^F,A,D^F] [G,B,D]2 | z ([G,CE] [A,CF]2 [G,CE]2) | [A,,,A,,]6 | %43
 (A,=F, ^C,>D,) F,>E, | D,>_B, D>=C (_B,/-[I:staff -1]_E/G/A/) |[I:staff +1] B,2 A,2 D2 | %46
 [G,,D,B,]2 z (^C,!>!G,^F,) | (^DB, =G,2) (^F,/B,/^D/^F/) |[I:staff -1] ^G2 ^F2 =GF | %49
[I:staff +1] EB, ^B,2 ^C2 | =B,^G, ^A,2 [^F,,^C,A,]2 | [^G,,^D,^G,]2 [G,,E,G,]2 [^A,,^C,^F,^A,]2 | %52
 x4 E2 | (E,/-G,/-C/-[I:staff -1]E/"^rit." G/c/e/^f/)[I:staff +1] C2 | z4 ^G,2 | %55
 (A,/B,/C/D/) z"^rit."[I:staff -1] C B,2 ||[I:staff +1] [A,,,A,,]6 | [A,,,A,,]6 | %58
 x[I:staff -1] [A,C][I:staff +1][G,B,][F,A,] [E,G,]2 | x ([D,F,][E,G,][D,F,] [C,E,]2) | %60
 !^![A,,,A,,]6 | !^![A,,,A,,]6 | [A,,,A,,]6 | x [G,B,] [F,A,]2 [D,F,][C,E,] | %64
 [G,,,G,,]4 [F,,,F,,]2 | [E,,,E,,]6 | !^![D,,,D,,]4 [E,,,E,,]2 | [F,,,F,,]4 [G,,,G,,]2 | %68
 [A,,,A,,]4 [G,,,G,,]2 | z E[I:staff -1]F[I:staff +1][G,B,D] [E,,,E,,][D,,,D,,] | %70
 [C,,,C,,]3 [D,,,D,,] [E,,,E,,]2 | %71
 z !tenuto![E,A,^C]!tenuto![^F,A,B,D]!tenuto![D,F,A,B,] !fermata![A,,E,C]2 |] %72
V:3
 x6 | x6 | !^![A,,,A,,]6 | [A,,,A,,]6 | x6 | x6 | x6 | [A,,,A,,]6 | x6 | x6 | x6 | x6 | x6 | %13
 [F,,,F,,]4 x2 | x6 | [A,,,A,,]4 [A,,,A,,]2 || F,,4 x2 | [C,,C,]6 | x2 F,G, x2 | [_E,,_E,]6 | x6 | %21
 x6 | x6 | x6 | [A,,,A,,]6 | [^F,,,^F,,]6 | [E,,E,]6 | [D,,D,]6 | [_E,,G,,C,]6 | %29
 [D,,G,,D,]4 ([=E,,=E,]2 | x6 | [A,,-E,A,-]4) [A,,A,]2 | x6 | x6 | [=F,,F,]2 [E,,E,]2 [=D,,=D,]2 | %35
 [^C,,^C,]2 [B,,,B,,]2 [A,,,A,,]2 | x6 | _G,2 x4 | F,,6 | x2 [_E,G,]2 [D,F,]2 | G,,6 | %41
 [C,,-G,,C,-]4 [C,,C,][B,,,B,,] | x6 | F,,6 | _B,,4 _E,2- | E,2 D,^C, =B,,A,, | x2 ^F,,2 z2 | %47
 B,,6 | (B,6 | E,4-) E,^D,/^C,/ | ^F,4 x2 | x6 | [^A,,^C,^F,^A,]2 B,,B, =G,^F, | %53
 [E,,-E,]4 [E,,E,G,]2 | z4 [E,,E,]2- | [E,,-E,]4 [E,,,E,,] z || x6 | x6 | [A,,,A,,]6 | [A,,,A,,]6 | %60
 x6 | x6 | x6 | [A,,,A,,]6 | x6 | x6 | x6 | x6 | x6 | [F,,,F,,]4 x2 | x6 | [A,,,A,,]4 x2 |] %72
V:4
 x6 | x6 | x6 | x6 | x [ce][Bd][Ac] x2 | x [Ac][GB][FA] x2 | x [EG][DF][CE] [B,D][A,C] | x6 | x6 | %9
 x6 | x2 [EG][DF] [CE][B,D] | x4 [G,B,]2 | x6 | x [Ac]2 x3 | x6 | x6 || x6 | x6 | x6 | _E_E x4 | %20
 [=B,^D]4 ^A,2 | [^G,B,E]4[I:staff +1] [^^F,^A,]2 |[I:staff -1] [=G,=CE]4 B,2 | [A,DF]4 x2 | x6 | %25
 x6 | x6 | [A,D^F]2 x2 [DF]2 | z (CD_E) x2 | z D=EF x2 | z (CFA [B,FGB]2) | [CEAc]4 [A,CEA-]2 | %32
 [D^F]2 [B,E]2 [DG]2 | [A,E]2 [A,B,]2 [^G,B,]2 | x6 | x6 | x6 | x6 | x6 | x2 [_EG]2 F2 | x4 G2 | %41
 [G,CEG]2 x4 | z !tenuto![^CEA^c] !tenuto![D^FAd]!tenuto![B,DFB] [CEAc]2 | x6 | x6 | %45
 [_B^c]A/!<(!G/ x4!<)! | x6 | ^F6 | B6 | ^G4 G2 | ^F4 x2 | ^D2 x4 | x6 | %53
 x2[I:staff +1] [E,G,C]2- x2 | x6 |[I:staff -1] z4 FE || x6 | x6 | x6 | x6 | x [ce][Bd][Ac] x2 | %61
 x [Ac][GB][FA] x2 | x [EG][DF][CE] [B,D][A,C] | x6 | x6 | x6 | x2 [EG][DF] [CE][B,D] | %67
 x4 [G,B,]2 | x6 | x [Ac]2 x3 | z [B,DG][EGc] x3 | x6 |] %72
V:5
 x6 | x6 | x6 | x6 | x6 | x6 | x6 | x6 | x6 | x6 | x6 | x6 | x6 | z [A,C]2 x3 | x6 | x6 || x6 | %17
 x6 | [_A,,,_A,,]4 x2 | x6 | x6 | x6 | x6 | x6 | x6 | x6 | x6 | x6 | x6 | x6 | x6 | x6 | x6 | x6 | %34
 x6 | x6 | x6 | x6 | x6 | [_B,,,_B,,]6 | x6 | x6 | x6 | x6 | x6 | x6 | x2 ^C2 x2 | x6 | x6 | x6 | %50
 x6 | x6 | x6 | x6 | x6 | x6 || x6 | x6 | x6 | x6 | x6 | x6 | x6 | x6 | x6 | x6 | x6 | x6 | x6 | %69
 z [A,C]2 x3 | x6 | x6 |] %72
V:6
 x6 | x6 | x6 | x6 | x6 | x6 | x6 | x6 | x6 | x6 | x6 | x6 | x6 | x6 | x6 | x6 || x6 | x6 | x6 | %19
 x6 | x6 | x6 | x6 | x6 | x6 | x6 | x6 | x6 | x6 | [FG]4 x2 | [A,CFA]4 x2 | x6 | x6 | x6 | x6 | %35
 x6 | x6 | x6 | x6 | x6 | x6 | x6 | x6 | x6 | x6 | x6 | x6 | x6 | x6 | x6 | x6 | x6 | x6 | x6 | %54
 x6 | x6 || x6 | x6 | x6 | x6 | x6 | x6 | x6 | x6 | x6 | x6 | x6 | x6 | x6 | x6 | x6 | x6 |] %72

